Numix/scalable/categories/applications-science-symbolic.svg

<?xml version="1.0" encoding="UTF-8" standalone="no"?>
<!-- Created with Inkscape (http://www.inkscape.org/) -->

<svg
   xmlns:dc="http://purl.org/dc/elements/1.1/"
   xmlns:cc="http://creativecommons.org/ns#"
   xmlns:rdf="http://www.w3.org/1999/02/22-rdf-syntax-ns#"
   xmlns:svg="http://www.w3.org/2000/svg"
   xmlns="http://www.w3.org/2000/svg"
   xmlns:sodipodi="http://sodipodi.sourceforge.net/DTD/sodipodi-0.dtd"
   xmlns:inkscape="http://www.inkscape.org/namespaces/inkscape"
   version="1.1"
   width="16"
   height="16"
   id="svg7384"
   inkscape:version="0.91 r"
   sodipodi:docname="applications-science-symbolic.svg">
  <sodipodi:namedview
     pagecolor="#ffffff"
     bordercolor="#666666"
     borderopacity="1"
     objecttolerance="10"
     gridtolerance="10"
     guidetolerance="10"
     inkscape:pageopacity="0"
     inkscape:pageshadow="2"
     inkscape:window-width="1920"
     inkscape:window-height="1056"
     id="namedview70"
     showgrid="true"
     inkscape:zoom="22.627417"
     inkscape:cx="-0.27432844"
     inkscape:cy="1.9525056"
     inkscape:window-x="0"
     inkscape:window-y="24"
     inkscape:window-maximized="1"
     inkscape:current-layer="svg7384">
    <inkscape:grid
       type="xygrid"
       id="grid4163" />
  </sodipodi:namedview>
  <title
     id="title9167">elementary Symbolic Icon Theme</title>
  <defs
     id="defs10" />
  <metadata
     id="metadata90">
    <rdf:RDF>
      <cc:Work
         rdf:about="">
        <dc:format>image/svg+xml</dc:format>
        <dc:type
           rdf:resource="http://purl.org/dc/dcmitype/StillImage" />
        <dc:title>elementary Symbolic Icon Theme</dc:title>
      </cc:Work>
    </rdf:RDF>
  </metadata>
  <path
     style="color:#000000;opacity:0.4;fill:#bebebe;stroke-width:2;fill-opacity:1;stroke:none"
     d="M 5.9355469,9 4,13 c 2.6666667,0 5.3333333,0 8,0 L 10.064453,9 C 8.688151,9 7.3118489,9 5.9355469,9 Z"
     id="rect5725-1"
     inkscape:connector-curvature="0"
     sodipodi:nodetypes="ccccc" />
  <path
     style="opacity:1;fill:#bebebe;fill-opacity:1;fill-rule:nonzero;stroke:none;stroke-width:2;stroke-linecap:butt;stroke-linejoin:miter;stroke-miterlimit:4;stroke-dasharray:none;stroke-dashoffset:0;stroke-opacity:1"
     d="M 11,5 11,2 C 11.554,2 12,1.554 12,1 12,0.446 11.554,0 11,0 L 5,0 C 4.446,0 4,0.446 4,1 4,1.554 4.446,2 5,2 l 0,3 -3.5996094,6.5 c -0.53521178,0.927063 -0.53521176,2.072937 0,3 C 1.9356021,15.427063 2.9295346,16 4,16 l 8,0 c 1.070465,0 2.064398,-0.572937 2.599609,-1.5 0.535212,-0.927063 0.535212,-2.072937 0,-3 z m 1.867188,7.5 c 0.179572,0.311045 0.179572,0.688955 0,1 C 12.687613,13.811045 12.359103,14 12,14 l -8,0 c -0.3591028,0 -0.6876148,-0.188955 -0.8671875,-0.5 -0.1795728,-0.311046 -0.1795728,-0.688954 0,-1 L 7,5 7,2 9,2 9,5 Z"
     id="rect4165"
     inkscape:connector-curvature="0"
     sodipodi:nodetypes="ccsssscccsssscccsssscccccc" />
</svg>

<!-- Created with Inkscape (http://www.inkscape.org/) -->
<svg xmlns="http://www.w3.org/2000/svg" viewBox="0 0 16 16">
 <path d="m 5.936 9 -1.936 4 c 2.667 0 5.333 0 8 0 l -1.936 -4 c -1.376 0 -2.753 0 -4.129 0" style="fill:#bebebe;opacity:0.4;fill-opacity:1;stroke:none;color:#000"/>
 <path d="m 11 5 0 -3 c 0.554 0 1 -0.446 1 -1 0 -0.554 -0.446 -1 -1 -1 l -6 0 c -0.554 0 -1 0.446 -1 1 0 0.554 0.446 1 1 1 l 0 3 -3.6 6.5 c -0.535 0.927 -0.535 2.073 0 3 c 0.535 0.927 1.529 1.5 2.6 1.5 l 8 0 c 1.07 0 2.064 -0.573 2.6 -1.5 0.535 -0.927 0.535 -2.073 0 -3 z m 1.867 7.5 c 0.18 0.311 0.18 0.689 0 1 c -0.18 0.311 -0.508 0.5 -0.867 0.5 l -8 0 c -0.359 0 -0.688 -0.189 -0.867 -0.5 -0.18 -0.311 -0.18 -0.689 0 -1 l 3.867 -7.5 0 -3 2 0 0 3" style="fill:#bebebe;opacity:1;fill-opacity:1;stroke:none;fill-rule:nonzero"/>
</svg>
